X:1
T: Jolly Companions
C:
R:Jig
Q:180
K:A
M:6/8
L:1/16
|:A2B2A2 c4c2|B2c2B2 d4d2|c2e2A2 d4c2|B2A2G2 A6|
A2B2A2 c4c2|B2c2B2 d4d2|c2e2A2 d4c2|B2A2G2 A6|
a4e2 f4e2|a4e2 f4e2|e2f2g2 a2g2f2|e2d2c2 B4e2|
f2e2d2 c2d2e2|e2d2c2 B2c2d2|e2c2A2 d4c2|B2A2G2 A6:|
